svgs/duotone/hand-dots.svg

<svg xmlns="http://www.w3.org/2000/svg" viewBox="0 0 512 512"><!--! Font Awesome Pro 6.3.0 by @fontawesome - https://fontawesome.com License - https://fontawesome.com/license (Commercial License) Copyright 2023 Fonticons, Inc. --><defs><style>.fa-secondary{opacity:.4}</style></defs><path class="fa-primary" d="M192 384c-8.836 0-16 7.162-16 16C176 408.8 183.2 416 192 416s16-7.164 16-16C208 391.2 200.8 384 192 384zM320 352c-8.836 0-16 7.162-16 16c0 8.836 7.164 16 16 16s16-7.164 16-16C336 359.2 328.8 352 320 352zM352 416c-8.836 0-16 7.162-16 16c0 8.836 7.164 16 16 16s16-7.164 16-16C368 423.2 360.8 416 352 416z"/><path class="fa-secondary" d="M448 96c-17.67 0-32 14.33-32 32v112C416 248.8 408.8 256 400 256s-15.93-7.164-15.93-16L384 64c0-17.67-14.33-32-32-32s-32 14.33-32 32l.0498 176c0 8.836-7.219 16-16.06 16s-15.95-7.164-15.95-16L288 32c0-17.67-14.33-32-32-32S224 14.33 224 32l.0729 208C224.1 248.8 216.8 256 208 256S192.1 248.8 192.1 240L192 64c0-17.67-14.33-32-32-32S128 46.33 128 64v279.4L68.28 283.7C60.47 275.9 50.23 272 40 272C18.68 272 0 289.2 0 312c0 10.23 3.906 20.47 11.72 28.28l113.1 113.1C162.6 491.2 212.9 512 266.3 512H304c97.05 0 176-78.95 176-176V128C480 110.3 465.7 96 448 96zM192 416c-8.836 0-16-7.164-16-16C176 391.2 183.2 384 192 384s16 7.162 16 16C208 408.8 200.8 416 192 416zM256 448c-8.836 0-16-7.164-16-16c0-8.838 7.164-16 16-16s16 7.162 16 16C272 440.8 264.8 448 256 448zM256 352c-8.836 0-16-7.164-16-16c0-8.838 7.164-16 16-16s16 7.162 16 16C272 344.8 264.8 352 256 352zM320 384c-8.836 0-16-7.164-16-16c0-8.838 7.164-16 16-16s16 7.162 16 16C336 376.8 328.8 384 320 384zM352 448c-8.836 0-16-7.164-16-16c0-8.838 7.164-16 16-16s16 7.162 16 16C368 440.8 360.8 448 352 448zM384 352c-8.836 0-16-7.164-16-16c0-8.838 7.164-16 16-16s16 7.162 16 16C400 344.8 392.8 352 384 352z"/></svg>

<svg xmlns="http://www.w3.org/2000/svg" viewBox="0 0 512 512"><!-- Font Awesome Pro 6.0.0-alpha2 by @fontawesome - https://fontawesome.com License - https://fontawesome.com/license (Commercial License) --><defs><style>.fa-secondary{opacity:.4}</style></defs><path d="M448 96C430.328 96 416 110.328 416 128V240C416 248.836 408.836 256 400 256S384 248.836 384 240V64C384 46.328 369.672 32 352 32S320 46.328 320 64V240C320 248.836 312.836 256 304 256S288 248.836 288 240V32C288 14.328 273.672 0 256 0S224 14.328 224 32V240C224 248.836 216.836 256 208 256S192 248.836 192 240V64C192 46.328 177.672 32 160 32S128 46.328 128 64V343.438L68.281 283.719C60.469 275.906 50.234 272 40 272C18.684 272 0 289.163 0 312C0 322.234 3.906 332.469 11.719 340.281L124.859 453.422C162.625 491.203 212.859 512 266.281 512H304C401.047 512 480 433.047 480 336V128C480 110.328 465.672 96 448 96ZM192 416C183.164 416 176 408.836 176 400C176 391.162 183.164 384 192 384S208 391.162 208 400C208 408.836 200.836 416 192 416ZM256 448C247.164 448 240 440.836 240 432C240 423.162 247.164 416 256 416S272 423.162 272 432C272 440.836 264.836 448 256 448ZM256 352C247.164 352 240 344.836 240 336C240 327.162 247.164 320 256 320S272 327.162 272 336C272 344.836 264.836 352 256 352ZM320 384C311.164 384 304 376.836 304 368C304 359.162 311.164 352 320 352S336 359.162 336 368C336 376.836 328.836 384 320 384ZM352 448C343.164 448 336 440.836 336 432C336 423.162 343.164 416 352 416S368 423.162 368 432C368 440.836 360.836 448 352 448ZM384 352C375.164 352 368 344.836 368 336C368 327.162 375.164 320 384 320S400 327.162 400 336C400 344.836 392.836 352 384 352Z" class="fa-secondary"/><path d="M192 384C183.164 384 176 391.162 176 400C176 408.836 183.164 416 192 416S208 408.836 208 400C208 391.162 200.836 384 192 384ZM320 352C311.164 352 304 359.162 304 368C304 376.836 311.164 384 320 384S336 376.836 336 368C336 359.162 328.836 352 320 352ZM352 416C343.164 416 336 423.162 336 432C336 440.836 343.164 448 352 448S368 440.836 368 432C368 423.162 360.836 416 352 416Z" class="fa-primary"/></svg>
